icons/fill-new-add-location.svg

<svg xmlns="http://www.w3.org/2000/svg" width="32px" height="32px" viewBox="0 0 32 32" version="1.1">
    <title>fill-new-add-location</title>
    <g id="fill-new-add-location" stroke-width="1" fill-rule="evenodd">
        <path d="M9,30 C8.44771525,30 8,29.5522847 8,29 C8,28.4477153 8.44771525,28 9,28 L13.6914014,28.0015825 C9.32527075,23.9286848 5,18.1580644 5,13 C5,6.92486775 9.92486775,2 16,2 C22.0751322,2 27,6.92486775 27,13 C27,18.1580644 22.6747292,23.9286848 18.3085986,28.0015825 L23,28 C23.5522847,28 24,28.4477153 24,29 C24,29.5522847 23.5522847,30 23,30 L9,30 Z M16,8 C15.4477153,8 15,8.44771525 15,9 L15,12 L12,12 C11.4871642,12 11.0644928,12.3860402 11.0067277,12.8833789 L11,13 C11,13.5522847 11.4477153,14 12,14 L15,14 L15,17 C15,17.5128358 15.3860402,17.9355072 15.8833789,17.9932723 L16,18 C16.5522847,18 17,17.5522847 17,17 L17,14 L20,14 C20.5128358,14 20.9355072,13.6139598 20.9932723,13.1166211 L21,13 C21,12.4477153 20.5522847,12 20,12 L17,12 L17,9 C17,8.48716416 16.6139598,8.06449284 16.1166211,8.00672773 L16,8 Z" id="&#24418;&#29366;" />
    </g>
</svg>

<svg xmlns="http://www.w3.org/2000/svg" viewBox="0 0 32 32"><path fill="currentColor" d="M9 30a1 1 0 0 1 0-2l4.691.002C9.325 23.929 5 18.158 5 13 5 6.925 9.925 2 16 2s11 4.925 11 11c0 5.158-4.325 10.929-8.691 15.002L23 28a1 1 0 0 1 0 2zm7-22a1 1 0 0 0-1 1v3h-3a1 1 0 0 0-.993.883L11 13a1 1 0 0 0 1 1h3v3a1 1 0 0 0 .883.993L16 18a1 1 0 0 0 1-1v-3h3a1 1 0 0 0 .993-.883L21 13a1 1 0 0 0-1-1h-3V9a1 1 0 0 0-.883-.993z"/></svg>
